src/assets/icon/ic_mail.svg

<svg width="286" height="286" viewBox="0 0 286 286" fill="none" xmlns="http://www.w3.org/2000/svg">
<g clip-path="url(#clip0)">
<path d="M271.333 47.6667H14.667C6.59978 47.6667 0 54.2665 0 62.3332V223.667C0 231.733 6.59978 238.334 14.667 238.334H271.334C279.4 238.334 286.001 231.734 286.001 223.667V62.3332C286 54.2665 279.4 47.6667 271.333 47.6667ZM265.829 58.666L151.437 144.467C149.38 146.032 146.223 147.012 142.999 146.997C139.776 147.012 136.62 146.032 134.562 144.467L20.1703 58.666H265.829ZM204.725 150.128L267.058 227.129C267.121 227.206 267.197 227.265 267.264 227.335H18.7364C18.8023 227.261 18.8794 227.206 18.9419 227.129L81.2754 150.128C83.1852 147.767 82.8233 144.306 80.4576 142.391C78.0964 140.482 74.6348 140.844 72.7244 143.205L10.9998 219.454V65.5412L127.966 153.266C132.363 156.541 137.712 157.982 142.999 157.996C148.279 157.985 153.632 156.544 158.032 153.266L274.998 65.5412V219.453L213.275 143.205C211.365 140.844 207.9 140.481 205.542 142.391C203.177 144.301 202.814 147.767 204.725 150.128Z" fill="white"/>
</g>
<defs>
<clipPath id="clip0">
<rect width="286" height="286" fill="white"/>
</clipPath>
</defs>
</svg>

<svg width="286" height="286" fill="none" xmlns="http://www.w3.org/2000/svg"><g clip-path="url(#a)"><path d="M271.333 47.667H14.667C6.6 47.667 0 54.267 0 62.333v161.334c0 8.066 6.6 14.667 14.667 14.667h256.667c8.066 0 14.667-6.6 14.667-14.667V62.333c-.001-8.066-6.601-14.666-14.668-14.666zm-5.504 10.999-114.392 85.801c-2.057 1.565-5.214 2.545-8.438 2.53-3.223.015-6.379-.965-8.437-2.53L20.17 58.666H265.83zm-61.104 91.462 62.333 77.001c.063.077.139.136.206.206H18.736c.066-.074.143-.129.206-.206l62.333-77.001a5.5 5.5 0 0 0-.817-7.737 5.5 5.5 0 0 0-7.734.814L11 219.454V65.541l116.966 87.725c4.397 3.275 9.746 4.716 15.033 4.73 5.28-.011 10.633-1.452 15.033-4.73l116.966-87.725v153.912l-61.723-76.248a5.498 5.498 0 0 0-7.733-.814 5.499 5.499 0 0 0-.817 7.737z" fill="#fff"/></g><defs><clipPath id="a"><path fill="#fff" d="M0 0h286v286H0z"/></clipPath></defs></svg>
